projects/vfh1/img/icons-service/people2.svg

<svg viewBox="0 0 26 18" fill="none" xmlns="http://www.w3.org/2000/svg">
<path d="M17.6667 7.83334C19.6034 7.83334 21.155 6.27001 21.155 4.33334C21.155 2.39668 19.6034 0.833344 17.6667 0.833344C15.73 0.833344 14.1667 2.39668 14.1667 4.33334C14.1667 6.27001 15.73 7.83334 17.6667 7.83334ZM8.33335 7.83334C10.27 7.83334 11.8217 6.27001 11.8217 4.33334C11.8217 2.39668 10.27 0.833344 8.33335 0.833344C6.39669 0.833344 4.83335 2.39668 4.83335 4.33334C4.83335 6.27001 6.39669 7.83334 8.33335 7.83334ZM8.33335 10.1667C5.61502 10.1667 0.166687 11.5317 0.166687 14.25V16C0.166687 16.6417 0.691687 17.1667 1.33335 17.1667H15.3334C15.975 17.1667 16.5 16.6417 16.5 16V14.25C16.5 11.5317 11.0517 10.1667 8.33335 10.1667ZM17.6667 10.1667C17.3284 10.1667 16.9434 10.19 16.535 10.225C16.5584 10.2367 16.57 10.26 16.5817 10.2717C17.9117 11.24 18.8334 12.535 18.8334 14.25V16C18.8334 16.4083 18.7517 16.805 18.6234 17.1667H24.6667C25.3084 17.1667 25.8334 16.6417 25.8334 16V14.25C25.8334 11.5317 20.385 10.1667 17.6667 10.1667Z" fill="#42474D"/>
</svg>

<svg viewBox="0 0 26 18" fill="none" xmlns="http://www.w3.org/2000/svg"><path d="M17.667 7.833a3.485 3.485 0 003.488-3.5c0-1.936-1.552-3.5-3.488-3.5a3.495 3.495 0 00-3.5 3.5c0 1.937 1.563 3.5 3.5 3.5zm-9.334 0a3.485 3.485 0 003.489-3.5c0-1.936-1.552-3.5-3.489-3.5a3.495 3.495 0 00-3.5 3.5c0 1.937 1.564 3.5 3.5 3.5zm0 2.334c-2.718 0-8.166 1.365-8.166 4.083V16a1.17 1.17 0 001.166 1.167h14A1.17 1.17 0 0016.5 16v-1.75c0-2.718-5.448-4.083-8.167-4.083zm9.334 0c-.339 0-.724.023-1.132.058.023.012.035.035.047.047 1.33.968 2.251 2.263 2.251 3.978V16c0 .408-.081.805-.21 1.167h6.044A1.17 1.17 0 0025.833 16v-1.75c0-2.718-5.448-4.083-8.166-4.083z" fill="#42474D"/></svg>
